svg/set/M15/WM.svg

<?xml version="1.0" encoding="UTF-8" standalone="no"?>
<svg
   version="1.1"
   id="Layer_1"
   x="0px"
   y="0px"
   width="300.00003"
   height="160"
   xmlns="http://www.w3.org/2000/svg"
   xmlns:svg="http://www.w3.org/2000/svg">
  <defs
     id="defs1" />
  <path
     d="m 19.343778,0 c 0,0 -19.36274979,39.615625 -19.343749794977,80.015625 C -0.02697179,120.38263 19.339872,160 19.339872,160 H 280.04691 c 0,0 19.94512,-39.75695 19.95312,-80.001953 C 300.00903,39.755047 280.05276,0 280.05276,0 Z m 6.576172,9.6328125 248.25781,0.00977 c 10.63,24.4869995 16.22875,43.3602185 16.21875,70.3242185 -10e-4,27.002999 -5.60637,45.870759 -16.23437,70.384759 L 25.904325,150.33984 C 15.306325,125.80684 9.7167782,106.9747 9.7187782,79.970703 9.7277782,53.006703 15.28495,34.107813 25.91995,9.6328125 Z m 6.074219,9.2226565 c -8.714,20.707 -12.987422,38.16775 -12.982422,61.09375 -0.024,14.292 1.635422,26.432581 4.982422,38.517581 6.103,-5.958 8.693859,-13.03488 11.880859,-21.546878 2.859,-7.849 5.065688,-15.946188 8.929688,-23.367188 1.16,-3.271 3.988359,-3.285531 6.193359,-2.019531 l 4.962891,2.234375 c 2.451999,1.062 3.980578,2.851125 2.517578,6.703125 -2.981,6.699 -14.271125,28.383407 -7.828125,34.191407 1.063,0.983 1.97164,1.54962 2.55664,1.89062 l 2.175781,0.86915 -0.01367,7.02539 c -9.393,-1.455 -19.920657,-1.09458 -28.472657,3.35742 1.495,4.338 3.19786,8.71967 5.13086,13.26367 l 236.052737,0.0215 c 8.713,-20.706 13.03454,-38.13742 13.06054,-61.107418 -0.012,-22.965 -4.34973,-40.445281 -13.05273,-61.113281 z m 231.240241,5.328125 1.0371,0.002 1.10938,0.0039 -0.004,17.335938 v 1.113281 l -29.33203,0.01758 -1.12695,11.257812 c 21.102,0.593002 31.91214,11.174641 33.99414,23.181641 0.268,1.518 0.39844,3.052078 0.39844,4.580078 0.051,11.352 -6.76724,21.484546 -20.24024,23.810546 -2.005,0.353 -4.15431,0.5392 -6.44531,0.5332 -8.035,0.036 -15.27256,-3.00478 -20.22656,-8.050777 l -0.63477,-0.646484 0.50391,-0.751954 7.86719,-11.757812 0.45703,-0.683594 1.1289,0.335938 0.79883,0.238281 -0.002,0.830078 c 0,0.885 0.0709,1.734111 0.21289,2.537109 1.052,5.747 5.42303,9.42161 11.70703,9.47461 1.009,0 1.95684,-0.08133 2.83984,-0.236328 5.69,-1.063 8.74704,-4.901203 8.83204,-11.158203 l -0.18165,-2.003907 c -1.23,-6.957 -9.04904,-15.487484 -30.37304,-15.521484 l -1.24219,0.002 4.19727,-38.197265 0.10937,-0.992188 31.00977,-0.01758 3.27343,-4.75586 z m -145.12305,2.96289 c 7.017,2.882 21.19912,3.53336 27.95312,0.56836 l 6.21289,3.58789 -0.31836,1.63086 c -2.577,6.469 -0.0363,16.959094 5.05274,25.871094 4.126,7.103998 15.93759,32.796129 18.05859,41.828122 0.873,3.801 1.15338,6.53624 3.85938,9.49024 1.592,1.697 3.97012,3.25556 6.57812,4.97656 l 3.76953,2.56641 c 1.581,1.174 2.76975,2.41835 3.96875,3.94336 l -2.73437,6.49414 c -13.426,-4.377 -36.01464,-7.98816 -48.80664,2.21484 l -6.45313,-7.01758 c 4.564,-3.911 14.60094,-10.03769 12.58594,-17.55469 -3.013,-11.335988 -10.81105,-25.503934 -15.99805,-36.335934 -1.255,-2.523 -2.45465,-1.987828 -3.34765,-1.548828 -2.276,1.532 -4.19596,1.869313 -6.50196,-0.429687 l -3.51953,-3.902344 c -2.15798,-2.607 -2.00992,-5.215188 0.0801,-7.117188 1.155,-1.01 3.87803,-3.669578 7.83203,-11.267578 1.709,-3.367 -10.84872,-8.544578 -13.51172,-9.892578 z m 88.9082,1.214844 1.49805,0.01953 1.0957,0.01758 0.0254,58.933593 c -0.002,1.699 0.11847,3.213641 0.35547,4.556641 1.117,5.938 4.14072,8.592488 9.76172,9.896488 l 0.89648,0.19726 -0.0469,1.92969 -0.0293,1.08789 -37.79101,0.002 h -1.12891 l 0.0156,-1.1289 0.0156,-1.04883 0.008,-0.76563 11.00781,-3.998043 -0.0156,-52.798828 -9.89844,0.0039 -1.13281,0.002 0.0332,-2.183594 0.0117,-0.861328 0.8418,-0.203125 c 6.539,-1.555 17.77339,-7.518328 24.15039,-13.361328 z M 48.814481,29.857422 82.328153,30.78125 c 0.268,6.33 5.075406,11.336547 8.441406,16.435547 4.456,6.925 7.821969,14.767672 14.542971,19.638672 l 1.73633,-1.394531 c 2.117,-1.986001 4.76497,-2.091516 6.79297,-0.228516 l 3.92968,4.396484 c 2.463,2.513 1.49819,5.063922 -0.13281,7.044922 -6.027,7.763 -0.67848,19.05068 2.22852,27.054692 1.875,5.118 3.33406,10.18837 4.41406,15.60937 -8.344,1.508 -17.35208,10.23797 -20.83008,17.79297 l -8.835938,-4.94141 0.673828,-2.58203 C 97.693092,113.68542 79.459262,66.964063 68.240262,60.664062 l -1.605468,0.525391 c -0.401,0.474 -0.832469,1.235781 -1.355469,2.175781 l -1.126953,2.539063 c -1.156,3.071 -3.379078,3.987268 -6.580078,2.572265 l -5.066407,-2.376953 c -2.927,-1.461 -4.417125,-3.260171 -2.203125,-7.201171 0.913,-2.381001 6.458766,-15.627235 4.134766,-17.115235 -1.008,-0.67 -3.097047,-1.270297 -5.248047,-1.779297 l -2.640625,-0.544922 c -2.046,-0.366 -3.146031,-2.472937 -2.332031,-3.585937 l 1.861328,-2.505859 z"
     id="path1" />
</svg>

<?xml version="1.0" encoding="utf-8"?>
<svg xmlns="http://www.w3.org/2000/svg" xmlns:xlink="http://www.w3.org/1999/xlink" version="1.1" id="Layer_1" x="0px" y="0px" width="300px" height="160px">
  <path d="M 19.34375 0 C 19.34375 9.4739031e-015 -0.019 39.615625 0 80.015625 C -0.027 120.38263 19.339844 160 19.339844 160 L 280.04688 160 C 280.04688 160 299.992 120.24305 300 79.998047 C 300.009 39.755047 280.05273 0 280.05273 0 L 19.34375 0 z M 25.919922 9.6328125 L 274.17773 9.6425781 C 284.80773 34.129578 290.40648 53.002797 290.39648 79.966797 C 290.39548 106.9698 284.79011 125.83756 274.16211 150.35156 L 25.904297 150.33984 C 15.306297 125.80684 9.71675 106.9747 9.71875 79.970703 C 9.72775 53.006703 15.284922 34.107813 25.919922 9.6328125 z M 31.994141 18.855469 C 23.280141 39.562469 19.006719 57.023219 19.011719 79.949219 C 18.987719 94.241219 20.647141 106.3818 23.994141 118.4668 C 30.097141 112.5088 32.688 105.43192 35.875 96.919922 C 38.734 89.070922 40.940688 80.973734 44.804688 73.552734 C 45.964688 70.281734 48.793047 70.267203 50.998047 71.533203 L 55.960938 73.767578 C 58.412937 74.829578 59.941516 76.618703 58.478516 80.470703 C 55.497516 87.169703 44.207391 108.85411 50.650391 114.66211 C 51.713391 115.64511 52.622031 116.21173 53.207031 116.55273 L 55.382812 117.42188 L 55.369141 124.44727 C 45.976141 122.99227 35.448484 123.35269 26.896484 127.80469 C 28.391484 132.14269 30.094344 136.52436 32.027344 141.06836 L 268.08008 141.08984 C 276.79308 120.38384 281.11462 102.95242 281.14062 79.982422 C 281.12862 57.017422 276.79089 39.537141 268.08789 18.869141 L 31.994141 18.855469 z M 263.23438 24.183594 L 264.27148 24.185547 L 265.38086 24.189453 L 265.37695 41.525391 L 265.37695 42.638672 L 236.04492 42.65625 L 234.91797 53.914062 C 256.01997 54.507064 266.83011 65.088703 268.91211 77.095703 C 269.18011 78.613703 269.31055 80.147781 269.31055 81.675781 C 269.36155 93.027781 262.54331 103.16033 249.07031 105.48633 C 247.06531 105.83933 244.916 106.02553 242.625 106.01953 C 234.59 106.05553 227.35244 103.01475 222.39844 97.96875 L 221.76367 97.322266 L 222.26758 96.570312 L 230.13477 84.8125 L 230.5918 84.128906 L 231.7207 84.464844 L 232.51953 84.703125 L 232.51758 85.533203 C 232.51758 86.418203 232.58847 87.267314 232.73047 88.070312 C 233.78247 93.817312 238.1535 97.491922 244.4375 97.544922 C 245.4465 97.544922 246.39434 97.463594 247.27734 97.308594 C 252.96734 96.245594 256.02438 92.407391 256.10938 86.150391 L 255.92773 84.146484 C 254.69773 77.189484 246.87869 68.659 225.55469 68.625 L 224.3125 68.626953 L 228.50977 30.429688 L 228.61914 29.4375 L 259.62891 29.419922 L 262.90234 24.664062 L 263.23438 24.183594 z M 118.11133 27.146484 C 125.12833 30.028484 139.31045 30.679844 146.06445 27.714844 L 152.27734 31.302734 L 151.95898 32.933594 C 149.38198 39.402594 151.92272 49.892688 157.01172 58.804688 C 161.13772 65.908686 172.94931 91.600817 175.07031 100.63281 C 175.94331 104.43381 176.22369 107.16905 178.92969 110.12305 C 180.52169 111.82005 182.89981 113.37861 185.50781 115.09961 L 189.27734 117.66602 C 190.85834 118.84002 192.04709 120.08437 193.24609 121.60938 L 190.51172 128.10352 C 177.08572 123.72652 154.49708 120.11536 141.70508 130.31836 L 135.25195 123.30078 C 139.81595 119.38978 149.85289 113.26309 147.83789 105.74609 C 144.82489 94.410102 137.02684 80.242156 131.83984 69.410156 C 130.58484 66.887156 129.38519 67.422328 128.49219 67.861328 C 126.21619 69.393328 124.29623 69.730641 121.99023 67.431641 L 118.4707 63.529297 C 116.31272 60.922297 116.46078 58.314109 118.55078 56.412109 C 119.70578 55.402109 122.42881 52.742531 126.38281 45.144531 C 128.09181 41.777531 115.53409 36.599953 112.87109 35.251953 L 118.11133 27.146484 z M 207.01953 28.361328 L 208.51758 28.380859 L 209.61328 28.398438 L 209.63867 87.332031 C 209.63667 89.031031 209.75714 90.545672 209.99414 91.888672 C 211.11114 97.826672 214.13486 100.48116 219.75586 101.78516 L 220.65234 101.98242 L 220.60547 103.91211 L 220.57617 105 L 182.78516 105.00195 L 181.65625 105.00195 L 181.67188 103.87305 L 181.6875 102.82422 L 181.69531 102.05859 L 192.70312 98.060547 L 192.6875 45.261719 L 182.78906 45.265625 L 181.65625 45.267578 L 181.68945 43.083984 L 181.70117 42.222656 L 182.54297 42.019531 C 189.08197 40.464531 200.31636 34.501203 206.69336 28.658203 L 207.01953 28.361328 z M 48.814453 29.857422 L 82.328125 30.78125 C 82.596125 37.11125 87.403531 42.117797 90.769531 47.216797 C 95.225531 54.141797 98.5915 61.984469 105.3125 66.855469 L 107.04883 65.460938 C 109.16583 63.474937 111.8138 63.369422 113.8418 65.232422 L 117.77148 69.628906 C 120.23448 72.141906 119.26967 74.692828 117.63867 76.673828 C 111.61167 84.436828 116.96019 95.724508 119.86719 103.72852 C 121.74219 108.84652 123.20125 113.91689 124.28125 119.33789 C 115.93725 120.84589 106.92917 129.57586 103.45117 137.13086 L 94.615234 132.18945 L 95.289062 129.60742 C 97.693064 113.68542 79.459234 66.964063 68.240234 60.664062 L 66.634766 61.189453 C 66.233766 61.663453 65.802297 62.425234 65.279297 63.365234 L 64.152344 65.904297 C 62.996344 68.975297 60.773266 69.891565 57.572266 68.476562 L 52.505859 66.099609 C 49.578859 64.638609 48.088734 62.839438 50.302734 58.898438 C 51.215734 56.517437 56.7615 43.271203 54.4375 41.783203 C 53.4295 41.113203 51.340453 40.512906 49.189453 40.003906 L 46.548828 39.458984 C 44.502828 39.092984 43.402797 36.986047 44.216797 35.873047 L 46.078125 33.367188 L 48.814453 29.857422 z "/>
</svg>
